X:1
T:Chopin 24 Préludes: Opus 28 No. 20 in C Minor 
T:Frédéric François Chopin (1810 - 1849)
T: 
%%score { ( 1 2 ) | 3 }
L:1/8
Q:1/4=30
M:4/4
K:Eb
V:1 bass nm="Piano"
V:2 bass 
V:3 bass 
V:1
"^Largo"!ff! ([G,CEG]2 [A,CEA]2 [EG]>!4!!5![DF] !3!!5![E,G,CE]2) | %1
 ([E,A,CE]2 [F,A,_DF]2 [CE]>!4!!55![B,D] !5!!3![C,E,A,C]2) | %2
!<(! ([=D,F,=B,=D]2 [=E,G,_B,C=E]2 !5!G>F"^☆" !3![G,C_E]2 | %3
 !3![^F,CD]2 [G,=B,DG]2[K:treble] !5!=B>=A!<)! [=B,DG]2) |!p! ([_EG_e]2 [E_Ae]2 [Dd]2 [DGd]2 | %5
 [CGc]2 ![1![CD^Fd]2 [DG=B]>!1!!5![C=A] !4![=B,DG]2 | %6
 [CGc]2 [A,C_A]2 G>"^Riten.\n\n"!4!F !3![G,CE]2 | %7
[K:bass] [E,A,CE]2 [F,A,_DF]2 E>!5!=D !4![E,G,C]2) |[K:treble] ([_EG_e]2 [E_Ae]2 [Dd]2 [DGd]2 | %9
 [CGc]2 [CD^Fd]2 [DG=B]>!1!!5![C=A] !4![=B,DG]2 | %10
 [CGc]2 [A,C_A]2 G>[Q:1/4=28]"^Riten."!4!F !3![G,CE]2 | %11
[K:bass][Q:1/4=25]"^25" [E,A,CE]2 [F,A,_DF]2 E>!5!=D !4![E,G,C]2) | %12
[K:treble][Q:1/4=20]"^20" !>!!fermata![CEGc]8 |] %13
V:2
 x4 [G,=B,]2 x2 | x4 [_D,E,G,]2 x2 | x4 [A,C]2 x2 | x4[K:treble] [CD^F]2 x2 | x4 !3!A>!2!^F x2 | %5
 x8 | x4 [G,D]2 x2 |[K:bass] x4 [F,G,=B,]2 x2 |[K:treble] x4 !3!A>!2!^F x2 | x8 | x4 [G,D]2 x2 | %11
[K:bass] x4 [F,G,=B,]2 x2 |[K:treble] x8 |] %13
V:3
 [C,,C,]2 [F,,,F,,]2 [G,,,G,,]2 [C,,G,,C,]2 | [A,,,A,,]2 [_D,,,_D,,]2 [E,,,E,,]2 [A,,,A,,]2 | %2
 [G,,,G,,]2 [C,,,C,,]2 [F,,,F,,]2 [C,,C,]2 | [D,,=A,,D,]2 [G,,,G,,]2 [D,,,D,,]2 [G,,,G,,]2 | %4
 [C,,C,]2 [C,C]2 [=B,,=B,]2 [_B,,_B,]2 | [=A,,=A,]2 [_A,,_A,]2 [G,,G,]2 [=F,,=F,]2 | %6
 [E,,E,]2 [F,,F,]2 [=B,,,=B,,]2 [C,,C,]2 | [A,,,A,,]2 [_D,,,_D,,]2 [G,,,G,,]2 [C,,,C,,]2 | %8
 ([C,,C,]2 [C,C]2 [=B,,=B,]2 [_B,,_B,]2 | [=A,,=A,]2 [_A,,_A,]2 [G,,G,]2 [=F,,=F,]2 | %10
 [E,,E,]2 [F,,F,]2 [=B,,,=B,,]2 [C,,C,]2 | %11
 [A,,,A,,]2 [_D,,,_D,,]2 [G,,,G,,]2!ped! [C,,,C,,]2)!ped-up! | !>!!fermata![C,G,]8 |] %13

